X: 2878
T: Barn Elms
R: three-two
M: 3/2
K: Eminor
|:GA|B2e2- e2f2 g2fe|^def2 B2AG G2F2|G2E2 GAB2 c2B2|B2cB A4 B2:|
|:dc|B2d2- d2e2 dedc|B2G2- G2d2 g2d2|e2d2- d2cB c2B2|A2AB c2d2 B2G2|
d2g2- g2f2 e2B2|^c2f2- f2e2 ^dfdB|e2d2- d2c2- c2B2|cBAG F4 E2:|

